X:3
T:Hambo efter Blinde Janne
T:(SmM IV-3)
S:Blinde Janne
O:Gränna, Småland
B:Theodor Frylands samling
B:Småländsk Musiktradition
R:Hambo
M:3/4
L:1/8
K:D
AD FA d2|BG Be g2|eA ce a2|dd fa d'2|AD FA d2|BG Be g2|eA ce ac|d2 d2 z2|
a2 f2 d2|Ad fb a2|g2 e2 c2|b2 aa fd|a2 f2 d2|Ad fb a2|g2 e2 c2|dd d2 z2:|

